!!!COM: Music21
!!!OTL: Jota de Boimorto
!!!OMV: pezas_jotas_jota-de-boimorto_jota-de-boimorto-partitura-1.musicxml
**kern
*I"Gaita
*I'Bag
*clefG^2
*k[]
*M3/4
*MM200
=1
!LO:TX:a:t=[quarter]=200
4r
8ggL
8ffJ
8eeL
8ddJ
=||
8ccL
8eeJ
8ggL
8ffJ
8eeL
8ddJ
=
4cc
8ggL
8ffJ
8eeL
8ddJ
=
8ccL
8eeJ
8ggL
8ffJ
8eeL
8ffJ
=
4dd
8ggL
8ffJ
8eeL
8ffJ
=
8ddL
8eeJ
8ffL
8ggJ
8eeL
8ffJ
=
4dd
8ggL
8ffJ
8eeL
8ffJ
!!linebreak:original
=
8ddL
8eeJ
8ggL
8ffJ
8eeL
8ddJ
=
4cc
8ggL
8ffJ
8eeL
8ddJ
=||
8ccL
8eeJ
8ggL
8ffJ
8eeL
8ddJ
=
4cc
8ggL
8ffJ
8eeL
8ddJ
=
8ccL
8eeJ
8ggL
8ffJ
8eeL
8ffJ
=
4dd
8ggL
8ffJ
8eeL
8ffJ
=
8ddL
8eeJ
8ffL
8ggJ
8eeL
8ffJ
=
4dd
8ggL
8ffJ
8eeL
8ffJ
!!linebreak:original
=
8ddL
8eeJ
8ggL
8ffJ
8eeL
8ddJ
=
4cc
8eeL
8eeJ
8eeL
8eeJ
=||
4ee
8ddL
8ccJ
4ee
=
4cc
8eeL
8eeJ
8eeL
8eeJ
=
4ee
8ddL
8ccJ
4ff
=
4dd
8ffL
8ffJ
8ffL
8ffJ
=
8ffL
8eeJ
8ddL
8eeJ
4ff
!!linebreak:original
=
4dd
8ffL
8ffJ
8ffL
8ffJ
=
8ffL
8eeJ
8ddL
8ffJ
4ee
=
4cc
8eeL
8eeJ
8eeL
8eeJ
=
4ee
8ddL
8ccJ
4ee
=
4cc
8eeL
8eeJ
8eeL
8eeJ
=
4ee
8ddL
8ccJ
[4ff
=
4ff]
8ddL
8eeJ
8ffL
8ggJ
=
4ee
8ccL
8ddJ
8eeL
8ffJ
=
4dd
8bL
8ccJ
8ddL
8eeJ
!!linebreak:original
=
4cc
8eeL
8eeJ
8eeL
8eeJ
=||
4ee
8ddL
8ccJ
4ee
=
4cc
8eeL
8eeJ
8eeL
8eeJ
=
4ee
8ddL
8ccJ
4ff
=
4dd
8ffL
8ffJ
8ffL
8ffJ
=
8ffL
8eeJ
8ddL
8eeJ
4ff
!!linebreak:original
=
4dd
8ffL
8ffJ
8ffL
8ffJ
=
8ffL
8eeJ
8ddL
8ffJ
4ee
=
4cc
8eeL
8eeJ
8eeL
8eeJ
=
4ee
8ddL
8ccJ
4ee
=
4cc
8eeL
8eeJ
8eeL
8eeJ
=
4ee
8ddL
8ccJ
[4ff
=
4ff]
8ddL
8eeJ
8ffL
8ggJ
=
4ee
8ccL
8ddJ
8eeL
8ffJ
=
4dd
8bL
8ccJ
8ddL
8eeJ
!!linebreak:original
=
2cc
4ee
=||
4gg
4gg
4aa
=
4ff
4ff
4gg
=
4ee
4ee
4ff
=
4dd
8ddL
8ccJ
8ddL
8eeJ
=
4ff
4ff
4gg
=
4ee
4ee
4ff
=
4dd
4dd
4ee
=
2cc
4ee
=||
4gg
4gg
4aa
=
4ff
4ff
4gg
=
4ee
4ee
4ff
!!linebreak:original
=
4dd
8ddL
8ccJ
8ddL
8eeJ
=
4ff
4ff
4gg
=
4ee
4ee
4ff
=
4dd
4dd
4ee
!!linebreak:original
=||
4cc
8ggL
8ffJ
8eeL
8ddJ
=||
8cc
8r
2r
==
*-
